icons/bag.svg

<svg xmlns="http://www.w3.org/2000/svg" width="96" height="96"><path d="M63.953 24H70c4.3 0 8 3.3 8.4 7.6l5.2 56.1v.7c0 2-.8 4-2.2 5.4C80 95.2 78 96 76 96H20c-2 0-4-.8-5.4-2.2-1.4-1.4-2.2-3.4-2.2-5.4v-.7l5.2-56.1C18 27.3 21.7 24 26 24h6.047L32 22.1c-.1-5.3 1.3-10.4 4.1-14.9 2.5-4.3 7-7 11.9-7.2 4.9.2 9.4 2.9 11.9 7.2 2.8 4.5 4.2 9.6 4.1 14.9l-.047 1.9zm-8.006 0H40.052L40 21.9c-.1-3.7.9-7.4 2.9-10.6C44 9.5 45.9 8.2 48 8c2.1.2 4 1.5 5.1 3.3 2 3.2 3 6.9 2.9 10.6l-.053 2.1zM20.4 88H76v.6h-.4V88l-5.2-55.6c0-.2-.2-.4-.4-.4H26c-.2 0-.4.2-.4.4L20.4 88v.6H20V88h.4z" fill-rule="evenodd" fill="#454545"/></svg>

<?xml version="1.0" standalone="no"?><!-- Generator: Gravit.io --><svg xmlns="http://www.w3.org/2000/svg" xmlns:xlink="http://www.w3.org/1999/xlink" width="96" height="96"><path d=" M 63.9525 24 L 70 24 C 74.3 24 78 27.3 78.4 31.6 L 83.6 87.7 L 83.6 88.2 C 83.6 88.3 83.6 88.3 83.6 88.4 C 83.6 90.4 82.8 92.4 81.4 93.8 C 80 95.2 78 96 76 96 L 20 96 C 18 96 16 95.2 14.6 93.8 C 13.2 92.4 12.4 90.4 12.4 88.4 C 12.4 88.3 12.4 88.3 12.4 88.2 L 12.4 87.7 L 17.6 31.6 L 17.6 31.6 C 18 27.3 21.7 24 26 24 L 32.0475 24 L 32 22.1 C 31.9 16.8 33.3 11.7 36.1 7.2 C 38.6 2.9 43.1 0.20000000000000018 48 0 C 52.9 0.20000000000000018 57.4 2.9 59.9 7.2 C 62.7 11.7 64.1 16.8 64 22.1 L 63.9525 24 Z  M 55.9475 24 L 40.0525 24 L 40 21.9 C 39.9 18.2 40.9 14.5 42.9 11.3 C 44 9.5 45.9 8.2 48 8 C 50.1 8.2 52 9.5 53.1 11.3 C 55.1 14.5 56.1 18.2 56 21.9 L 55.9475 24 Z  M 20.4 88 L 75.6 88 L 76 88 L 76 88.6 L 75.6 88.6 L 75.6 88.3 L 75.6 88 L 70.4 32.4 C 70.4 32.2 70.2 32 70 32 L 26 32 C 25.8 32 25.6 32.2 25.6 32.4 L 20.4 88 L 20.4 88.3 L 20.4 88.6 L 20 88.6 L 20 88 L 20.4 88 L 20.4 88 Z " fill-rule="evenodd" fill="#454545" stroke="none"/><mask id="_mask_m2j2R9IhNLkLn7cPBGxdtyl9PnqykQYK"><path d=" M 63.9525 24 L 70 24 C 74.3 24 78 27.3 78.4 31.6 L 83.6 87.7 L 83.6 88.2 C 83.6 88.3 83.6 88.3 83.6 88.4 C 83.6 90.4 82.8 92.4 81.4 93.8 C 80 95.2 78 96 76 96 L 20 96 C 18 96 16 95.2 14.6 93.8 C 13.2 92.4 12.4 90.4 12.4 88.4 C 12.4 88.3 12.4 88.3 12.4 88.2 L 12.4 87.7 L 17.6 31.6 L 17.6 31.6 C 18 27.3 21.7 24 26 24 L 32.0475 24 L 32 22.1 C 31.9 16.8 33.3 11.7 36.1 7.2 C 38.6 2.9 43.1 0.20000000000000018 48 0 C 52.9 0.20000000000000018 57.4 2.9 59.9 7.2 C 62.7 11.7 64.1 16.8 64 22.1 L 63.9525 24 Z  M 55.9475 24 L 40.0525 24 L 40 21.9 C 39.9 18.2 40.9 14.5 42.9 11.3 C 44 9.5 45.9 8.2 48 8 C 50.1 8.2 52 9.5 53.1 11.3 C 55.1 14.5 56.1 18.2 56 21.9 L 55.9475 24 Z  M 20.4 88 L 75.6 88 L 76 88 L 76 88.6 L 75.6 88.6 L 75.6 88.3 L 75.6 88 L 70.4 32.4 C 70.4 32.2 70.2 32 70 32 L 26 32 C 25.8 32 25.6 32.2 25.6 32.4 L 20.4 88 L 20.4 88.3 L 20.4 88.6 L 20 88.6 L 20 88 L 20.4 88 L 20.4 88 Z " fill-rule="evenodd" fill="white" stroke="none"/></mask><path d=" M 63.9525 24 L 70 24 C 74.3 24 78 27.3 78.4 31.6 L 83.6 87.7 L 83.6 88.2 C 83.6 88.3 83.6 88.3 83.6 88.4 C 83.6 90.4 82.8 92.4 81.4 93.8 C 80 95.2 78 96 76 96 L 20 96 C 18 96 16 95.2 14.6 93.8 C 13.2 92.4 12.4 90.4 12.4 88.4 C 12.4 88.3 12.4 88.3 12.4 88.2 L 12.4 87.7 L 17.6 31.6 L 17.6 31.6 C 18 27.3 21.7 24 26 24 L 32.0475 24 L 32 22.1 C 31.9 16.8 33.3 11.7 36.1 7.2 C 38.6 2.9 43.1 0.20000000000000018 48 0 C 52.9 0.20000000000000018 57.4 2.9 59.9 7.2 C 62.7 11.7 64.1 16.8 64 22.1 L 63.9525 24 Z  M 55.9475 24 L 40.0525 24 L 40 21.9 C 39.9 18.2 40.9 14.5 42.9 11.3 C 44 9.5 45.9 8.2 48 8 C 50.1 8.2 52 9.5 53.1 11.3 C 55.1 14.5 56.1 18.2 56 21.9 L 55.9475 24 Z  M 20.4 88 L 75.6 88 L 76 88 L 76 88.6 L 75.6 88.6 L 75.6 88.3 L 75.6 88 L 70.4 32.4 C 70.4 32.2 70.2 32 70 32 L 26 32 C 25.8 32 25.6 32.2 25.6 32.4 L 20.4 88 L 20.4 88.3 L 20.4 88.6 L 20 88.6 L 20 88 L 20.4 88 L 20.4 88 Z " fill-rule="evenodd" fill="none" stroke="none" stroke-width="16" mask="url(#_mask_m2j2R9IhNLkLn7cPBGxdtyl9PnqykQYK)"/></svg>
